;FLAVOR:RepRap
;TIME:7003
;Filament used: 16.2211m
;Layer height: 0.125
;MINX:119.75
;MINY:72.25
;MINZ:0.25
;MAXX:220.25
;MAXY:307.75
;MAXZ:23.5
;LINEARADVANCEPROCESSED
;Generated with Cura_SteamEngine 4.6.1
T0
M190 S70
M104 S210
M109 S210
M82 ;absolute extrusion mode
G28 ;Home
G92 E0
G1 F12000 X0 Y0 E5
G92 E0
G1 F12000
M83 ;relative extrusion mode
G1 F1800 E-6.5
;LAYER_COUNT:183
M572 S0.000000 D0 ;added by LinearAdvanceSettingPlugin
;LAYER:0
M107
M204 T3000
M566 X1200 Y1200
G1 F600 Z0.75
G0 F6000 X210.138 Y72.261 Z0.75
M204 P3000
;TYPE:SKIRT
G1 F600 Z0.25
G1 F1800 E6.5
G1 F6000 X211.042 Y72.314 E0.04471
G1 X211.937 Y72.446 E0.04466
G1 X212.818 Y72.657 E0.04473
G1 X213.676 Y72.945 E0.04468
G1 X214.506 Y73.308 E0.04473
G1 X215.3 Y73.742 E0.04467
G1 X216.053 Y74.245 E0.04471
G1 X216.759 Y74.812 E0.0447
G1 X217.411 Y75.439 E0.04466
G1 X218.006 Y76.121 E0.04468
G1 X218.539 Y76.853 E0.0447
G1 X219.005 Y77.63 E0.04473
G1 X219.4 Y78.444 E0.04467
G1 X219.722 Y79.29 E0.04469
G1 X219.968 Y80.161 E0.04468
G1 X220.137 Y81.051 E0.04472
G1 X220.237 Y82.222 E0.05802
G1 X220.25 Y82.83 E0.03002
G1 X220.25 Y296.764 E10.56203
G1 X220.24 Y297.618 E0.04217
G1 X220.189 Y298.522 E0.0447
G1 X220.058 Y299.418 E0.04471
G1 X219.849 Y300.298 E0.04465
G1 X219.563 Y301.157 E0.0447
G1 X219.202 Y301.988 E0.04473
G1 X218.769 Y302.783 E0.04469
G1 X218.268 Y303.537 E0.04469
G1 X217.702 Y304.244 E0.04471
G1 X217.077 Y304.898 E0.04466
G1 X216.395 Y305.494 E0.04472
G1 X215.664 Y306.028 E0.04469
G1 X214.889 Y306.495 E0.04467
G1 X214.075 Y306.892 E0.04471
G1 X213.23 Y307.216 E0.04468
G1 X212.359 Y307.464 E0.04471
G1 X211.47 Y307.634 E0.04469
G1 X210.278 Y307.737 E0.05907
G1 X209.67 Y307.75 E0.03002
G1 X135.707 Y307.75 E3.65159
G1 X134.86 Y307.739 E0.04182
G1 X133.956 Y307.686 E0.04471
G1 X133.06 Y307.554 E0.04471
G1 X132.18 Y307.343 E0.04468
G1 X131.322 Y307.055 E0.04468
G1 X130.492 Y306.693 E0.04471
G1 X129.698 Y306.258 E0.0447
G1 X128.945 Y305.756 E0.04468
G1 X128.06 Y305.027 E0.05661
G1 X127.681 Y304.672 E0.02564
G1 X123.232 Y300.227 E0.31049
G1 X122.667 Y299.648 E0.03994
G1 X122.065 Y298.972 E0.04469
G1 X121.525 Y298.245 E0.04471
G1 X121.051 Y297.474 E0.04468
G1 X120.648 Y296.663 E0.04471
G1 X120.317 Y295.821 E0.04467
G1 X120.062 Y294.952 E0.04471
G1 X119.884 Y294.064 E0.04471
G1 X119.767 Y292.755 E0.06488
G1 X119.753 Y292.193 E0.02775
G1 X119.75 Y88.207 E10.07089
G1 X119.761 Y87.362 E0.04172
G1 X119.814 Y86.458 E0.04471
G1 X119.946 Y85.563 E0.04466
G1 X120.157 Y84.682 E0.04473
G1 X120.445 Y83.824 E0.04468
G1 X120.808 Y82.994 E0.04473
G1 X121.242 Y82.2 E0.04467
G1 X121.745 Y81.447 E0.04471
G1 X122.406 Y80.636 E0.05165
G1 X122.824 Y80.185 E0.03036
G1 X127.271 Y75.733 E0.31067
G1 X127.854 Y75.165 E0.04019
G1 X128.53 Y74.563 E0.04469
G1 X129.256 Y74.023 E0.04467
G1 X130.028 Y73.549 E0.04472
G1 X130.838 Y73.145 E0.04469
G1 X131.681 Y72.814 E0.04471
G1 X132.549 Y72.559 E0.04466
G1 X133.437 Y72.381 E0.04471
G1 X134.337 Y72.283 E0.0447
G1 X135.361 Y72.252 E0.05058
G1 X209.293 Y72.25 E3.65006
G1 X210.138 Y72.261 E0.04172
G1 F1800 E-6.5
G1 F600 Z0.75
;MESH:Cabinet Front&Rear A_2x_SN_BN.stl
G0 F6000 X174.579 Y184.324 Z0.75
;TYPE:WALL-INNER
G1 F600 Z0.25
G1 F1800 E6.5
G1 F6000 X182.646 Y192.519 E0.56773
G1 X183.383 Y193.268 E0.05188
G1 X182.388 Y192.931 E0.02662
G1 X182.387 Y192.93 E0.00007
G1 X179.519 Y191.954 E0.14957
G1 X179.19 Y191.843 E0.01714
G1 X179.19 Y192.19 E0.01018
G1 X179.19 Y192.191 E0.00005
G1 X179.19 Y194.092 E0.09385
G1 X179.19 Y194.093 E0.00005
G1 X179.19 Y194.44 E0.01713
G1 X178.861 Y194.329 E0.01019
G1 X166.807 Y190.232 E0.62855
G1 X166.807 Y187.635 E0.12822
G1 X164.073 Y186.705 E0.14257
G1 X163.162 Y186.396 E0.04749
G1 X164.108 Y186.225 E0.02447
G1 X174.579 Y184.324 E0.52541
G0 X174.32 Y183.863
G1 X174.443 Y183.473 E0.02019
G1 X174.577 Y183.609 E0.0011
G1 X184.48 Y193.67 E0.69697
G1 X185.218 Y194.419 E0.05191
G1 X184.222 Y194.081 E0.02666
G1 X180.019 Y192.652 E0.21917
G1 X179.69 Y192.541 E0.01714
G1 X179.69 Y192.888 E0.01018
G1 X179.69 Y192.889 E0.00005
G1 X179.69 Y194.79 E0.09385
G1 X179.69 Y194.791 E0.00005
G1 X179.69 Y195.138 E0.01713
G1 X179.361 Y195.027 E0.01019
G1 X166.307 Y190.59 E0.68069
G1 X166.307 Y187.993 E0.12822
G1 X162.085 Y186.557 E0.22017
G1 X161.175 Y186.248 E0.04745
G1 X162.121 Y186.077 E0.02448
G1 X174.32 Y183.863 E0.61211
G0 X174.777 Y183.334
G0 X163.188 Y171.549
G0 X163.529 Y171.006
G0 X176.521 Y175.413
G0 X179.858 Y177.476
G1 X179.857 Y177.475 E0.00007
G1 X179.059 Y176.703 E0.05482
G1 X180.111 Y177.06 E0.02808
G1 X186.869 Y179.358 E0.35241
G1 X187.198 Y179.47 E0.01716
G1 X187.198 Y179.123 E0.01017
G1 X187.198 Y179.122 E0.00005
G1 X187.198 Y168.197 E0.53937
G1 X159.109 Y158.65 E1.46468
G1 X158.78 Y158.539 E0.01714
G1 X158.78 Y158.886 E0.01018
G1 X158.78 Y158.887 E0.00005
G1 X158.78 Y169.812 E0.53937
G1 X162.192 Y170.972 E0.17792
G1 X162.49 Y171.073 E0.01553
G1 X162.323 Y171.34 E0.00945
G1 X162.119 Y171.666 E0.01899
G1 X164.464 Y174.05 E0.1651
G1 X164.809 Y174.4 E0.02426
G1 X164.323 Y174.47 E0.01343
G1 X160.099 Y175.083 E0.21073
G1 X158.78 Y175.283 E0.06586
G1 X158.78 Y201.374 E1.28813
G1 X166.478 Y203.991 E0.40142
G1 X166.807 Y204.103 E0.01716
G1 X166.807 Y203.756 E0.01017
G1 X166.807 Y203.755 E0.00005
G1 X166.807 Y201.853 E0.0939
G1 X166.807 Y201.852 E0.00005
G1 X166.807 Y201.505 E0.01713
G1 X167.136 Y201.616 E0.01019
G1 X179.19 Y205.713 E0.62855
G1 X179.19 Y208.311 E0.12826
G1 X186.869 Y210.921 E0.40042
G1 X187.198 Y211.032 E0.01714
G1 X187.198 Y210.685 E0.01018
G1 X187.198 Y210.684 E0.00005
G1 X187.198 Y184.578 E1.28887
G1 X179.858 Y177.476 E0.50424
G0 X177.909 Y176.286
G1 X177.908 Y176.285 E0.00007
G1 X177.11 Y175.513 E0.05482
G1 X178.162 Y175.87 E0.02808
G1 X186.369 Y178.66 E0.42796
G1 X186.698 Y178.772 E0.01716
G1 X186.698 Y178.425 E0.01017
G1 X186.698 Y178.424 E0.00005
G1 X186.698 Y168.555 E0.48724
G1 X159.609 Y159.348 E1.41253
G1 X159.28 Y159.237 E0.01714
G1 X159.28 Y159.584 E0.01018
G1 X159.28 Y159.585 E0.00005
G1 X159.28 Y169.454 E0.48724
G1 X162.951 Y170.702 E0.19143
G1 X163.249 Y170.803 E0.01553
G1 X163.082 Y171.07 E0.00945
G1 X162.752 Y171.597 E0.0307
G1 X165.513 Y174.403 E0.19435
G1 X165.858 Y174.753 E0.02426
G1 X165.372 Y174.823 E0.01343
G1 X160.172 Y175.578 E0.25942
G1 X159.28 Y175.713 E0.04454
G1 X159.28 Y201.016 E1.24922
G1 X165.978 Y203.293 E0.34927
G1 X166.307 Y203.405 E0.01716
G1 X166.307 Y203.058 E0.01017
G1 X166.307 Y203.057 E0.00005
G1 X166.307 Y201.155 E0.0939
G1 X166.307 Y201.154 E0.00005
G1 X166.307 Y200.807 E0.01713
G1 X166.636 Y200.918 E0.01019
G1 X179.69 Y205.355 E0.68069
G1 X179.69 Y207.953 E0.12826
G1 X186.369 Y210.223 E0.34827
G1 X186.698 Y210.334 E0.01714
G1 X186.698 Y209.987 E0.01018
G1 X186.698 Y209.986 E0.00005
G1 X186.698 Y194.922 E0.74372
G1 X186.599 Y194.889 E0.00515
G1 X186.262 Y194.774 E0.01758
G1 X186.583 Y194.643 E0.00485
G1 X186.698 Y194.595 E0.00228
G1 X186.698 Y184.79 E0.48408
G1 X177.909 Y176.286 E0.60378
G0 X176.521 Y175.413
G0 X163.529 Y171.006
G0 X163.188 Y171.549
G0 X174.42 Y182.969
G0 X174.147 Y183.493
G0 X173.934 Y183.425
;TYPE:WALL-OUTER
G1 X174.025 Y183.137 E0.01491
G1 X173.893 Y183.004 E0.00925
G1 X166.154 Y175.215 E0.54209
G1 X160.245 Y176.073 E0.29479
G1 X159.78 Y176.143 E0.02322
G1 X159.78 Y185.695 E0.47159
G1 X159.78 Y185.696 E0.00005
G1 X159.78 Y185.993 E0.01466
G1 X160.073 Y185.941 E0.00906
G1 X160.142 Y185.928 E0.00347
G1 X173.75 Y183.458 E0.68281
G1 X173.934 Y183.425 E0.00923
G0 X174.009 Y183.187
G0 X174.223 Y183.255
G0 X163.188 Y171.549
G0 X163.529 Y171.006
G0 X176.506 Y175.344
G0 X176.434 Y175.555
G1 X163.804 Y171.264 E0.65855
G1 X163.595 Y171.193 E0.0109
G1 X163.385 Y171.528 E0.01952
G1 X163.54 Y171.685 E0.00978
G1 X185.747 Y194.244 E1.56284
G1 X185.888 Y194.387 E0.00991
G1 X186.198 Y194.26 E0.01654
G1 X186.198 Y194.059 E0.00841
G1 X186.198 Y185.002 E0.44715
G1 X176.434 Y175.555 E0.67075
G0 X176.198 Y175.475
G0 X176.27 Y175.264
G0 X186.125 Y178.286
G0 X186.198 Y178.074
G1 X186.198 Y177.726 E0.01718
G1 X186.198 Y177.725 E0.00005
G1 X186.198 Y168.913 E0.43505
G1 X160.11 Y160.047 E1.36033
G1 X159.78 Y159.935 E0.01721
G1 X159.78 Y160.283 E0.0102
G1 X159.78 Y160.284 E0.00005
G1 X159.78 Y169.096 E0.43505
G1 X185.868 Y177.962 E1.36033
G1 X186.198 Y178.074 E0.01021
G0 X186.198 Y177.824
G0 X186.748 Y177.824
G1 F1800 E-6.5
G1 F600 Z0.75
G0 F6000 X186.823 Y177.824 Z0.75
G0 X175.733 Y160.675
;TYPE:WALL-INNER
G1 F600 Z0.25
G1 F1800 E6.5
G1 F6000 X175.733 Y141.137 E0.9646
G1 X168.894 Y138.812 E0.35662
G1 X168.565 Y138.7 E0.01716
G1 X168.565 Y139.047 E0.01017
G1 X168.565 Y139.048 E0.00005
G1 X168.565 Y158.587 E0.96465
G1 X175.404 Y160.912 E0.35662
G1 X175.733 Y161.023 E0.01714
G1 X175.733 Y160.676 E0.01018
G1 X175.733 Y160.675 E0.00005
G0 X175.233 Y160.325
G1 X175.233 Y159.978 E0.01713
G1 X175.233 Y159.977 E0.00005
G1 X175.233 Y141.495 E0.91247
G1 X169.394 Y139.51 E0.30448
G1 X169.065 Y139.398 E0.01716
G1 X169.065 Y139.745 E0.01017
G1 X169.065 Y139.746 E0.00005
G1 X169.065 Y158.229 E0.91252
G1 X174.904 Y160.214 E0.30448
G1 X175.233 Y160.325 E0.01019
G0 X174.733 Y159.627
;TYPE:WALL-OUTER
G1 X174.733 Y159.28 E0.01713
G1 X174.733 Y159.279 E0.00005
G1 X174.733 Y141.853 E0.86033
G1 X169.895 Y140.208 E0.25228
G1 X169.565 Y140.096 E0.01721
G1 X169.565 Y140.444 E0.0102
G1 X169.565 Y140.445 E0.00005
G1 X169.565 Y157.871 E0.86033
G1 X174.404 Y159.516 E0.25233
G1 X174.733 Y159.627 E0.01019
G0 X174.733 Y159.377
G0 X175.283 Y159.377
G1 F1800 E-6.5
G1 F600 Z0.75
G0 F6000 X175.358 Y159.377 Z0.75
G0 X185.855 Y144.263
;TYPE:WALL-INNER
G1 F600 Z0.25
G1 F1800 E6.5
G1 F6000 X187.198 Y143.558 E0.07489
G1 X187.198 Y133.449 E0.49909
G1 X175.003 Y125.593 E0.71619
G1 X174.299 Y125.14 E0.04133
G1 X175.136 Y125.136 E0.02151
G1 X175.137 Y125.135 E0.00007
G1 X187.198 Y125.062 E0.59547
G1 X187.198 Y113.987 E0.54678
G1 X187.198 Y113.986 E0.00005
G1 X187.198 Y113.732 E0.01254
G1 X186.944 Y113.737 E0.00807
G1 X158.78 Y114.354 E1.3908
G1 X158.78 Y124.982 E0.52471
G1 X158.78 Y124.983 E0.00005
G1 X158.78 Y125.233 E0.01234
G1 X159.03 Y125.233 E0.00799
G1 X159.031 Y125.232 E0.00007
G1 X159.182 Y125.23 E0.00746
G1 X159.183 Y125.229 E0.00007
G1 X159.523 Y125.228 E0.01679
G1 X159.423 Y125.553 E0.01004
G1 X159.422 Y125.554 E0.00007
G1 X159.346 Y125.798 E0.01262
G1 X185.855 Y144.263 E1.59497
G0 X185.892 Y143.679
G1 X186.698 Y143.256 E0.04494
G1 X186.698 Y133.722 E0.4707
G1 X173.319 Y125.103 E0.78573
G1 X172.615 Y124.65 E0.04133
G1 X173.452 Y124.646 E0.02151
G1 X173.453 Y124.645 E0.00007
G1 X186.698 Y124.565 E0.65392
G1 X186.698 Y114.498 E0.49701
G1 X186.698 Y114.497 E0.00005
G1 X186.698 Y114.243 E0.01254
G1 X186.444 Y114.248 E0.00807
G1 X159.28 Y114.843 E1.34142
G1 X159.28 Y124.479 E0.47573
G1 X159.28 Y124.48 E0.00005
G1 X159.28 Y124.73 E0.01234
G1 X159.53 Y124.73 E0.00799
G1 X159.531 Y124.729 E0.00007
G1 X159.862 Y124.726 E0.01634
G1 X159.863 Y124.725 E0.00007
G1 X160.203 Y124.724 E0.01679
G1 X160.102 Y125.049 E0.01003
G1 X159.932 Y125.597 E0.02833
G1 X185.892 Y143.679 E1.56192
G0 X185.929 Y143.095
;TYPE:WALL-OUTER
G1 X186.198 Y142.954 E0.01499
G1 X186.198 Y142.766 E0.00928
G1 X186.198 Y133.995 E0.43303
G1 X172.29 Y125.035 E0.8168
G1 X161.287 Y125.045 E0.54322
G1 X160.839 Y125.046 E0.02212
G1 X160.627 Y125.046 E0.01047
G1 X160.518 Y125.396 E0.0181
G1 X160.691 Y125.517 E0.00909
G1 X185.775 Y142.988 E1.50919
G1 X185.929 Y143.095 E0.00926
G0 X186.15 Y142.979
G0 X186.405 Y143.467
G0 X186.414 Y132.675
G0 X175.137 Y125.384
G0 X186.421 Y125.286
G0 X186.423 Y124.068
G0 X186.198 Y124.068
G1 X186.198 Y115.009 E0.44725
G1 X186.198 Y115.008 E0.00005
G1 X186.198 Y114.754 E0.01254
G1 X185.944 Y114.759 E0.00807
G1 X159.78 Y115.332 E1.29204
G1 X159.78 Y123.976 E0.42676
G1 X159.78 Y123.977 E0.00005
G1 X159.78 Y124.227 E0.01234
G1 X160.03 Y124.227 E0.00799
G1 X160.031 Y124.226 E0.00007
G1 X184.868 Y124.076 E1.22624
G1 X186.198 Y124.068 E0.06566
G0 X186.198 Y123.818
G0 X186.748 Y123.818
G1 F1800 E-6.5
G1 F600 Z0.75
G0 F6000 X186.823 Y123.818 Z0.75
G0 X141.88 Y139.507
;TYPE:WALL-INNER
G1 F600 Z0.25
G1 F1800 E6.5
G1 F6000 X142.66 Y138.91 E0.04849
G1 X143.257 Y138.13 E0.04849
G1 X143.633 Y137.223 E0.04847
G1 X143.76 Y136.25 E0.04844
G1 X143.633 Y135.277 E0.04844
G1 X143.257 Y134.37 E0.04847
G1 X142.66 Y133.59 E0.04849
G1 X141.88 Y132.993 E0.04849
G1 X140.973 Y132.617 E0.04847
G1 X140 Y132.49 E0.04844
G1 X139.027 Y132.617 E0.04844
G1 X138.12 Y132.993 E0.04847
G1 X137.34 Y133.59 E0.04849
G1 X136.743 Y134.37 E0.04849
G1 X136.367 Y135.277 E0.04847
G1 X136.24 Y136.25 E0.04844
G1 X136.367 Y137.223 E0.04844
G1 X136.743 Y138.13 E0.04847
G1 X137.34 Y138.91 E0.04849
G1 X138.12 Y139.507 E0.04849
G1 X139.027 Y139.883 E0.04847
G1 X140 Y140.01 E0.04844
G1 X140.973 Y139.883 E0.04844
G1 X141.88 Y139.507 E0.04847
G0 X141.628 Y139.07
G1 X142.303 Y138.553 E0.04198
G1 X142.82 Y137.878 E0.04198
G1 X143.146 Y137.093 E0.04196
G1 X143.256 Y136.25 E0.04197
G1 X143.146 Y135.407 E0.04197
G1 X142.82 Y134.622 E0.04196
G1 X142.303 Y133.947 E0.04198
G1 X141.628 Y133.43 E0.04198
G1 X140.843 Y133.104 E0.04196
G1 X140 Y132.994 E0.04197
G1 X139.157 Y133.104 E0.04197
G1 X138.372 Y133.43 E0.04196
G1 X137.697 Y133.947 E0.04198
G1 X137.18 Y134.622 E0.04198
G1 X136.854 Y135.407 E0.04196
G1 X136.744 Y136.25 E0.04197
G1 X136.854 Y137.093 E0.04197
G1 X137.18 Y137.878 E0.04196
G1 X137.697 Y138.553 E0.04198
G1 X138.372 Y139.07 E0.04198
G1 X139.157 Y139.396 E0.04196
G1 X140 Y139.506 E0.04197
G1 X140.843 Y139.396 E0.04197
G1 X141.628 Y139.07 E0.04196
G0 X141.376 Y138.633
;TYPE:WALL-OUTER
G1 X141.946 Y138.196 E0.03546
G1 X142.383 Y137.626 E0.03546
G1 X142.659 Y136.962 E0.0355
G1 X142.752 Y136.25 E0.03545
G1 X142.659 Y135.538 E0.03545
G1 X142.383 Y134.874 E0.0355
G1 X141.946 Y134.304 E0.03546
G1 X141.376 Y133.867 E0.03546
G1 X140.712 Y133.591 E0.0355
G1 X140 Y133.498 E0.03545
G1 X139.288 Y133.591 E0.03545
G1 X138.624 Y133.867 E0.0355
G1 X138.054 Y134.304 E0.03546
G1 X137.617 Y134.874 E0.03546
G1 X137.341 Y135.538 E0.0355
G1 X137.248 Y136.25 E0.03545
G1 X137.341 Y136.962 E0.03545
G1 X137.617 Y137.626 E0.0355
G1 X138.054 Y138.196 E0.03546
G1 X138.624 Y138.633 E0.03546
G1 X139.288 Y138.909 E0.0355
G1 X140 Y139.002 E0.03545
G1 X140.712 Y138.909 E0.03545
G1 X141.376 Y138.633 E0.0355
G0 X141.574 Y138.481
G0 X141.907 Y138.918
G1 F1800 E-6.5
G1 F600 Z0.75
G0 F6000 X141.953 Y138.978 Z0.75
G0 X159.78 Y186.302
G1 F600 Z0.25
G1 F1800 E6.5
G1 F6000 X159.78 Y186.649 E0.01713
G1 X159.78 Y186.65 E0.00005
G1 X159.78 Y200.658 E0.69158
G1 X165.477 Y202.595 E0.29708
G1 X165.807 Y202.707 E0.01721
G1 X165.807 Y202.359 E0.0102
G1 X165.807 Y202.358 E0.00005
G1 X165.807 Y200.458 E0.0938
G1 X165.807 Y200.457 E0.00005
G1 X165.807 Y200.109 E0.01718
G1 X166.137 Y200.221 E0.01021
G1 X180.19 Y204.997 E0.73278
G1 X180.19 Y207.595 E0.12826
G1 X185.869 Y209.525 E0.29612
G1 X186.198 Y209.636 E0.01714
G1 X186.198 Y209.289 E0.01018
G1 X186.198 Y209.288 E0.00005
G1 X186.198 Y195.28 E0.69158
G1 X180.519 Y193.35 E0.29612
G1 X180.19 Y193.239 E0.01714
G1 X180.19 Y193.586 E0.01018
G1 X180.19 Y193.587 E0.00005
G1 X180.19 Y195.487 E0.0938
G1 X180.19 Y195.488 E0.00005
G1 X180.19 Y195.836 E0.01718
G1 X179.86 Y195.724 E0.01021
G1 X165.807 Y190.948 E0.73278
G1 X165.807 Y188.351 E0.12822
G1 X160.128 Y186.42 E0.29614
G1 X160.109 Y186.413 E0.001
G1 X159.78 Y186.302 E0.01019
G0 X159.78 Y186.552
G0 X159.23 Y186.552
G1 F1800 E-6.5
G1 F600 Z0.75
G0 F6000 X159.155 Y186.552 Z0.75
G0 X158.78 Y203.262
;TYPE:WALL-INNER
G1 F600 Z0.25
G1 F1800 E6.5
G1 F6000 X158.78 Y213.074 E0.48442
G1 X168.446 Y216.358 E0.50401
G1 X169.226 Y216.623 E0.04067
G1 X168.43 Y216.834 E0.02119
G1 X158.78 Y219.402 E0.49301
G1 X158.78 Y230.847 E0.56505
G1 X158.78 Y231.172 E0.01605
G1 X159.094 Y231.088 E0.00969
G1 X160.911 Y230.6 E0.09289
G1 X161.235 Y230.513 E0.01656
G1 X161.226 Y230.848 E0.00991
G1 X161.225 Y230.849 E0.00007
G1 X161.211 Y231.263 E0.02045
G1 X186.869 Y239.984 E1.33792
G1 X187.198 Y240.095 E0.01714
G1 X187.198 Y239.748 E0.01018
G1 X187.198 Y239.747 E0.00005
G1 X187.198 Y229.935 E0.48442
G1 X177.471 Y226.63 E0.50719
G1 X177.47 Y226.629 E0.00007
G1 X176.694 Y226.366 E0.04045
G1 X177.486 Y226.154 E0.0211
